; HEADER_BLOCK_START
; generated by OrcaSlicer 2.1.1 on 2024-09-03 at 20:26:52
; total layer number: 95
; filament_density: 1.24
; filament_diameter: 1.75
; max_z_height: 19.04
; HEADER_BLOCK_END

; THUMBNAIL_BLOCK_START

;
; THUMBNAIL_BLOCK_END

; THUMBNAIL_BLOCK_START

;
; THUMBNAIL_BLOCK_END

; THUMBNAIL_BLOCK_START

;
; THUMBNAIL_BLOCK_END

; external perimeters extrusion width = 0.40mm
; perimeters extrusion width = 0.50mm
; infill extrusion width = 0.50mm
; solid infill extrusion width = 0.50mm
; top infill extrusion width = 0.42mm
; support material extrusion width = 0.45mm
; first layer extrusion width = 0.50mm

; EXECUTABLE_BLOCK_START
M73 P0 R30
;TYPE:Custom
G28
G90
G1 X0 F9000
G1 Y20
G1 Z0.600 F600
G1 Y0 F9000
START_PRINT
G90
G1 X0 F9000
G1 Y20
G1 Z0.600 F600
G1 Y0 F9000
M400
G91
M83
M140 S65 ;set bed temp
M104 S235 ;set extruder temp
M190 S65 ;wait for bed temp
M109 S235;wait for extruder temp
G1 E25 F300
G4 P1000
G1 E-0.200 Z5 F600
G1 X88.000 F9000
G1 Z-5.000 F600
G1 X87.000 E20.88 F1800
G1 X87.000 E13.92 F1800
G1 Y1 E0.16 F1800
G1 X-87.000 E13.92 F1800
G1 X-87.000 E20.88 F1800
G1 Y1 E0.24 F1800
M73 P1 R29
G1 X87.000 E20.88 F1800
G1 X87.000 E13.92 F1800
G1 E-0.200 Z1 F600
M400
G90
G21
M83 ; use relative distances for extrusion
; filament start gcode
M106 S0
;LAYER_CHANGE
;Z:0.24
;HEIGHT:0.24
TIMELAPSE_TAKE_FRAME
G92 E0
G1 E-.5 F1800
;_SET_FAN_SPEED_CHANGING_LAYER
SET_VELOCITY_LIMIT ACCEL=3000 ACCEL_TO_DECEL=1500
; printing object Body1.stl id:1470296261376 copy 0
G1 Z.4 F36000
G1 X219.15 Y175.626
G1 Z.4
G1 Z.24
G1 E.5 F1800
;TYPE:Outer wall
;WIDTH:0.499999
G1 X219.21 Y175.779 E.00721
G1 X219.374 Y175.85 E.00784
G1 X220.15 Y175.85 E.03402
G1 X220.15 Y190.295 E.63349
G1 X220.129 Y191.018 E.03173
G1 X220.066 Y191.734 E.0315
G1 X219.962 Y192.445 E.03151
G1 X219.817 Y193.148 E.03151
G1 X219.631 Y193.842 E.0315
G1 X219.405 Y194.524 E.03151
G1 X219.14 Y195.192 E.03151
G1 X218.836 Y195.843 E.0315
G1 X218.495 Y196.475 E.0315
G1 X218.113 Y197.094 E.03191
G1 X217.706 Y197.675 E.0311
G1 X217.261 Y198.238 E.0315
G1 X216.783 Y198.775 E.03151
G1 X216.275 Y199.283 E.03151
G1 X215.738 Y199.761 E.03151
G1 X215.175 Y200.206 E.0315
G1 X214.586 Y200.618 E.0315
G1 X213.967 Y201 E.03192
G1 X213.343 Y201.336 E.0311
G1 X212.692 Y201.64 E.03151
G1 X212.024 Y201.905 E.03151
G1 X211.342 Y202.131 E.0315
G1 X210.639 Y202.319 E.03191
G1 X209.945 Y202.462 E.0311
G1 X209.234 Y202.566 E.03151
G1 X208.518 Y202.629 E.0315
G1 X207.795 Y202.65 E.03173
G1 X175.85 Y202.65 E1.40097
G1 X175.85 Y201.874 E.03402
G1 X175.776 Y201.708 E.00799
G1 X175.626 Y201.65 E.00706
G1 X174.374 Y201.65 E.05489
G1 X174.224 Y201.708 E.00706
G1 X174.15 Y201.874 E.00799
G1 X174.15 Y202.65 E.03402
G1 X142.205 Y202.65 E1.40097
G1 X141.482 Y202.629 E.03173
G1 X140.766 Y202.566 E.0315
G1 X140.055 Y202.462 E.03151
G1 X139.352 Y202.317 E.0315
G1 X138.658 Y202.131 E.03151
G1 X137.976 Y201.905 E.0315
G1 X137.308 Y201.64 E.03151
G1 X136.657 Y201.336 E.03151
G1 X136.025 Y200.995 E.03151
G1 X135.414 Y200.618 E.0315
G1 X134.825 Y200.206 E.03151
G1 X134.262 Y199.761 E.0315
G1 X133.725 Y199.283 E.03151
G1 X133.217 Y198.775 E.03151
G1 X132.739 Y198.238 E.03151
G1 X132.294 Y197.675 E.0315
G1 X131.882 Y197.086 E.0315
G1 X131.5 Y196.467 E.03192
G1 X131.164 Y195.843 E.0311
G1 X130.86 Y195.192 E.0315
G1 X130.595 Y194.524 E.03151
G1 X130.369 Y193.842 E.0315
G1 X130.183 Y193.148 E.03151
G1 X130.038 Y192.445 E.03151
G1 X129.934 Y191.734 E.03151
G1 X129.871 Y191.018 E.0315
G1 X129.85 Y190.295 E.03173
G1 X129.85 Y175.85 E.63349
G1 X130.626 Y175.85 E.03402
G1 X130.79 Y175.779 E.00784
G1 X130.85 Y175.626 E.00721
G1 X130.85 Y174.374 E.05489
G1 X130.79 Y174.221 E.00721
G1 X130.626 Y174.15 E.00784
G1 X129.85 Y174.15 E.03402
G1 X129.85 Y159.705 E.63349
G1 X129.871 Y158.982 E.03173
G1 X129.934 Y158.266 E.0315
G1 X130.038 Y157.556 E.0315
G1 X130.185 Y156.843 E.03191
G1 X130.369 Y156.158 E.0311
G1 X130.595 Y155.476 E.0315
G1 X130.86 Y154.808 E.03151
G1 X131.164 Y154.157 E.0315
G1 X131.505 Y153.525 E.03151
G1 X131.882 Y152.914 E.03151
G1 X132.294 Y152.325 E.03151
G1 X132.739 Y151.762 E.0315
G1 X133.217 Y151.225 E.03151
G1 X133.725 Y150.717 E.03151
G1 X134.262 Y150.239 E.03151
G1 X134.825 Y149.794 E.0315
G1 X135.414 Y149.382 E.03151
G1 X136.025 Y149.005 E.03151
G1 X136.657 Y148.664 E.03151
G1 X137.308 Y148.36 E.0315
G1 X137.976 Y148.095 E.03151
G1 X138.658 Y147.869 E.0315
G1 X139.352 Y147.683 E.03151
G1 X140.055 Y147.538 E.03151
G1 X140.766 Y147.434 E.03151
G1 X141.482 Y147.371 E.0315
G1 X142.205 Y147.35 E.03173
G1 X174.15 Y147.35 E1.40097
G1 X174.15 Y148.126 E.03402
G1 X174.224 Y148.292 E.00799
G1 X174.374 Y148.35 E.00706
G1 X175.626 Y148.35 E.05489
G1 X175.776 Y148.292 E.00706
G1 X175.85 Y148.126 E.00799
G1 X175.85 Y147.35 E.03402
G1 X207.795 Y147.35 E1.40097
G1 X208.518 Y147.371 E.03173
G1 X209.234 Y147.434 E.0315
G1 X209.945 Y147.538 E.03151
G1 X210.648 Y147.683 E.03151
G1 X211.342 Y147.869 E.0315
G1 X212.024 Y148.095 E.03151
G1 X212.692 Y148.36 E.03151
G1 X213.343 Y148.664 E.03151
G1 X213.975 Y149.005 E.03151
G1 X214.586 Y149.382 E.0315
G1 X215.175 Y149.794 E.03151
G1 X215.738 Y150.239 E.0315
G1 X216.275 Y150.717 E.03151
G1 X216.783 Y151.225 E.03151
G1 X217.261 Y151.762 E.03151
G1 X217.706 Y152.325 E.0315
G1 X218.118 Y152.914 E.0315
G1 X218.5 Y153.533 E.03191
G1 X218.836 Y154.157 E.0311
G1 X219.14 Y154.808 E.0315
G1 X219.405 Y155.476 E.03151
G1 X219.631 Y156.158 E.03151
G1 X219.817 Y156.852 E.0315
G1 X219.962 Y157.555 E.03151
G1 X220.066 Y158.266 E.03151
G1 X220.129 Y158.982 E.0315
G1 X220.15 Y159.705 E.03173
G1 X220.15 Y174.15 E.63349
G1 X219.374 Y174.15 E.03402
G1 X219.21 Y174.221 E.00784
G1 X219.15 Y174.374 E.00721
G1 X219.15 Y175.606 E.05401
G1 X218.707 Y175.656 F36000
;TYPE:Inner wall
G1 F1800
G1 X218.707 Y175.712 E.00244
G1 X218.814 Y175.999 E.01344
G1 X219.027 Y176.202 E.01293
G1 X219.374 Y176.298 E.01579
G1 X219.702 Y176.298 E.01435
G1 X219.702 Y190.288 E.61354
G1 X219.681 Y190.992 E.03087
G1 X219.621 Y191.682 E.03036
G1 X219.52 Y192.367 E.03036
G1 X219.38 Y193.045 E.03036
G1 X219.201 Y193.713 E.03036
G1 X218.983 Y194.37 E.03036
G1 X218.728 Y195.014 E.03036
G1 X218.435 Y195.641 E.03036
G1 X218.107 Y196.25 E.03035
G1 X217.738 Y196.847 E.03077
G1 X217.346 Y197.407 E.02997
G1 X216.917 Y197.95 E.03036
G1 X216.457 Y198.467 E.03036
G1 X215.967 Y198.957 E.03036
G1 X215.45 Y199.417 E.03036
G1 X214.907 Y199.846 E.03036
G1 X214.34 Y200.243 E.03035
G1 X213.743 Y200.611 E.03077
G1 X213.141 Y200.935 E.02996
G1 X212.514 Y201.228 E.03036
G1 X211.87 Y201.483 E.03036
G1 X211.214 Y201.701 E.03035
G1 X210.536 Y201.882 E.03077
G1 X209.867 Y202.02 E.02997
G1 X209.182 Y202.121 E.03036
G1 X208.492 Y202.181 E.03036
G1 X207.788 Y202.202 E.03087
G1 X176.298 Y202.202 E1.38102
G1 X176.298 Y201.874 E.01435
M73 P2 R29
G1 X176.197 Y201.519 E.01621
G1 X176.077 Y201.375 E.00823
G1 X175.929 Y201.274 E.00785
G1 X175.626 Y201.202 E.01367
G1 X174.312 Y201.202 E.05762
G1 X174.01 Y201.309 E.01405
G1 X173.803 Y201.519 E.01294
G1 X173.702 Y201.874 E.01621
G1 X173.702 Y202.202 E.01435
G1 X142.212 Y202.202 E1.38102
G1 X141.508 Y202.181 E.03087
G1 X140.818 Y202.121 E.03036
G1 X140.133 Y202.02 E.03036
G1 X139.455 Y201.88 E.03036
G1 X138.787 Y201.701 E.03036
G1 X138.13 Y201.483 E.03036
G1 X137.486 Y201.228 E.03036
G1 X136.859 Y200.935 E.03036
G1 X136.249 Y200.607 E.03036
G1 X135.66 Y200.243 E.03036
G1 X135.093 Y199.846 E.03036
G1 X134.55 Y199.417 E.03036
G1 X134.033 Y198.957 E.03036
G1 X133.543 Y198.467 E.03036
G1 X133.083 Y197.95 E.03036
G1 X132.654 Y197.407 E.03036
G1 X132.257 Y196.84 E.03035
G1 X131.889 Y196.243 E.03077
G1 X131.565 Y195.641 E.02996
G1 X131.272 Y195.014 E.03036
G1 X131.017 Y194.37 E.03036
G1 X130.799 Y193.713 E.03036
G1 X130.62 Y193.045 E.03036
G1 X130.48 Y192.367 E.03036
G1 X130.379 Y191.682 E.03036
G1 X130.319 Y190.992 E.03036
G1 X130.298 Y190.288 E.03087
G1 X130.298 Y176.298 E.61354
G1 X130.626 Y176.298 E.01435
G1 X130.973 Y176.202 E.01579
G1 X131.118 Y176.085 E.00819
G1 X131.244 Y175.892 E.01009
G1 X131.298 Y175.626 E.01193
G1 X131.298 Y175 E.02744
G1 X131.293 Y174.288 E.03121
G1 X131.186 Y174.001 E.01344
G1 X130.973 Y173.798 E.01293
G1 X130.626 Y173.702 E.01579
G1 X130.298 Y173.702 E.01435
G1 X130.298 Y159.712 E.61354
G1 X130.319 Y159.008 E.03087
G1 X130.379 Y158.318 E.03036
G1 X130.48 Y157.634 E.03035
G1 X130.622 Y156.947 E.03077
G1 X130.799 Y156.287 E.02996
G1 X131.017 Y155.63 E.03036
G1 X131.272 Y154.986 E.03036
G1 X131.565 Y154.359 E.03036
G1 X131.893 Y153.749 E.03036
G1 X132.257 Y153.16 E.03036
G1 X132.654 Y152.593 E.03036
G1 X133.083 Y152.05 E.03036
G1 X133.543 Y151.533 E.03036
G1 X134.033 Y151.043 E.03036
G1 X134.55 Y150.583 E.03036
G1 X135.093 Y150.154 E.03036
G1 X135.66 Y149.757 E.03036
G1 X136.249 Y149.393 E.03036
G1 X136.859 Y149.065 E.03036
G1 X137.486 Y148.772 E.03036
G1 X138.13 Y148.517 E.03036
G1 X138.787 Y148.299 E.03036
G1 X139.455 Y148.12 E.03036
G1 X140.133 Y147.98 E.03036
G1 X140.818 Y147.879 E.03036
G1 X141.508 Y147.819 E.03036
G1 X142.212 Y147.798 E.03087
G1 X173.702 Y147.798 E1.38102
G1 X173.702 Y148.126 E.01435
G1 X173.803 Y148.481 E.01621
G1 X173.923 Y148.625 E.00823
G1 X174.071 Y148.726 E.00785
G1 X174.374 Y148.798 E.01367
G1 X175.688 Y148.798 E.05762
G1 X175.99 Y148.691 E.01405
G1 X176.197 Y148.481 E.01294
G1 X176.298 Y148.126 E.01621
G1 X176.298 Y147.798 E.01435
G1 X207.788 Y147.798 E1.38102
G1 X208.492 Y147.819 E.03087
G1 X209.182 Y147.879 E.03036
G1 X209.867 Y147.98 E.03036
G1 X210.545 Y148.12 E.03036
G1 X211.213 Y148.299 E.03036
G1 X211.87 Y148.517 E.03036
G1 X212.514 Y148.772 E.03036
G1 X213.141 Y149.065 E.03036
G1 X213.751 Y149.393 E.03036
G1 X214.34 Y149.757 E.03036
G1 X214.907 Y150.154 E.03036
G1 X215.45 Y150.583 E.03036
G1 X215.967 Y151.043 E.03036
G1 X216.457 Y151.533 E.03036
G1 X216.917 Y152.05 E.03036
G1 X217.346 Y152.593 E.03036
G1 X217.743 Y153.16 E.03035
G1 X218.111 Y153.757 E.03077
G1 X218.435 Y154.359 E.02996
G1 X218.728 Y154.986 E.03036
G1 X218.983 Y155.63 E.03036
G1 X219.201 Y156.287 E.03036
G1 X219.38 Y156.955 E.03036
G1 X219.52 Y157.633 E.03036
G1 X219.621 Y158.318 E.03036
G1 X219.681 Y159.008 E.03036
G1 X219.702 Y159.712 E.03087
G1 X219.702 Y173.702 E.61354
G1 X219.374 Y173.702 E.01435
G1 X219.027 Y173.798 E.01579
G1 X218.882 Y173.915 E.00819
G1 X218.756 Y174.108 E.01009
G1 X218.702 Y174.374 E.01193
G1 X218.702 Y175 E.02744
G1 X218.706 Y175.636 E.02789
;WIPE_START
G1 X218.707 Y175.712 E-.01889
G1 X218.814 Y175.999 E-.07659
G1 X219.027 Y176.202 E-.07369
G1 X219.374 Y176.298 E-.09
G1 X219.702 Y176.298 E-.08181
G1 X219.702 Y176.935 E-.15901
;WIPE_END
G1 Z.64 F36000
G1 X214.436 Y149.988 Z.64
G1 Z.24
G1 E.5 F1800
;TYPE:Bottom surface
;WIDTH:0.500482
G1 F5400
G1 X216.215 Y151.768 E.11049
G1 X216.659 Y152.266 E.02932
G1 X217.076 Y152.794 E.02953
G1 X217.462 Y153.345 E.02952
G1 X217.915 Y154.102 E.03874
G1 X213.398 Y149.585 E.28045
G1 X212.99 Y149.365 E.02033
G1 X212.179 Y149.001 E.03906
G1 X218.499 Y155.321 E.39243
G1 X218.667 Y155.745 E.01999
G1 X218.855 Y156.313 E.02628
G1 X211.187 Y148.645 E.47611
G1 X210.326 Y148.418 E.03911
G1 X219.082 Y157.174 E.54368
G1 X219.227 Y157.955 E.03485
G1 X209.545 Y148.273 E.60115
G1 X208.823 Y148.186 E.03192
G1 X219.314 Y158.677 E.65136
G1 X219.355 Y159.352 E.02969
G1 X208.148 Y148.145 E.69577
G1 X207.503 Y148.135 E.02835
G1 X219.365 Y159.997 E.73651
G1 X219.365 Y160.632 E.02788
G1 X206.868 Y148.135 E.77594
G1 X206.233 Y148.135 E.02788
G1 X219.365 Y161.267 E.81536
G1 X219.365 Y161.902 E.02788
G1 X205.598 Y148.135 E.85478
G1 X204.963 Y148.135 E.02788
G1 X219.365 Y162.537 E.89421
G1 X219.365 Y163.172 E.02788
G1 X204.328 Y148.135 E.93363
G1 X203.693 Y148.135 E.02788
G1 X219.365 Y163.807 E.97305
G1 X219.365 Y164.442 E.02788
G1 X203.058 Y148.135 E1.01248
G1 X202.423 Y148.135 E.02788
G1 X219.365 Y165.077 E1.0519
G1 X219.365 Y165.712 E.02788
G1 X201.788 Y148.135 E1.09132
G1 X201.153 Y148.135 E.02788
G1 X219.365 Y166.347 E1.13075
G1 X219.365 Y166.982 E.02788
G1 X200.518 Y148.135 E1.17017
G1 X199.883 Y148.135 E.02788
G1 X219.365 Y167.617 E1.20959
G1 X219.365 Y168.252 E.02788
G1 X199.248 Y148.135 E1.24902
G1 X198.614 Y148.135 E.02788
G1 X219.365 Y168.886 E1.28844
G1 X219.365 Y169.521 E.02788
G1 X197.979 Y148.135 E1.32786
G1 X197.344 Y148.135 E.02788
G1 X219.365 Y170.156 E1.36728
G1 X219.365 Y170.791 E.02788
G1 X196.709 Y148.135 E1.40671
G1 X196.074 Y148.135 E.02788
G1 X219.365 Y171.426 E1.44613
G1 X219.365 Y172.061 E.02788
G1 X195.439 Y148.135 E1.48555
G1 X194.804 Y148.135 E.02788
G1 X219.365 Y172.696 E1.52498
G1 X219.365 Y173.331 E.02788
G1 X194.169 Y148.135 E1.5644
G1 X193.534 Y148.135 E.02788
G1 X218.893 Y173.494 E1.57454
G1 X218.859 Y173.504 E.00156
G1 X218.638 Y173.683 E.0125
G1 X218.554 Y173.79 E.00597
G1 X192.899 Y148.135 E1.59287
G1 X192.264 Y148.135 E.02788
G1 X218.375 Y174.246 E1.62121
G1 X218.365 Y174.871 E.02745
G1 X191.629 Y148.135 E1.66001
G1 X190.994 Y148.135 E.02788
M73 P3 R29
G1 X218.366 Y175.506 E1.69945
G1 X218.392 Y175.859 E.01555
G1 X218.447 Y176.026 E.00769
G1 X218.534 Y176.185 E.00795
G1 X218.638 Y176.317 E.0074
G1 X218.859 Y176.496 E.0125
G1 X219.365 Y176.637 E.02305
G1 X219.365 Y177.141 E.02214
G1 X190.359 Y148.135 E1.80094
G1 X189.724 Y148.135 E.02788
G1 X219.365 Y177.776 E1.84036
G1 X219.365 Y178.411 E.02788
G1 X189.089 Y148.135 E1.87979
G1 X188.454 Y148.135 E.02788
G1 X219.365 Y179.046 E1.91921
G1 X219.365 Y179.681 E.02788
G1 X187.819 Y148.135 E1.95863
G1 X187.184 Y148.135 E.02788
G1 X219.365 Y180.316 E1.99806
G1 X219.365 Y180.951 E.02788
G1 X186.549 Y148.135 E2.03748
G1 X185.914 Y148.135 E.02788
G1 X219.365 Y181.586 E2.0769
G1 X219.365 Y182.22 E.02788
G1 X185.28 Y148.135 E2.11632
G1 X184.645 Y148.135 E.02788
G1 X219.365 Y182.855 E2.15575
G1 X219.365 Y183.49 E.02788
G1 X184.01 Y148.135 E2.19517
G1 X183.375 Y148.135 E.02788
G1 X219.365 Y184.125 E2.23459
G1 X219.365 Y184.76 E.02788
G1 X182.74 Y148.135 E2.27402
G1 X182.105 Y148.135 E.02788
G1 X219.365 Y185.395 E2.31344
G1 X219.365 Y186.03 E.02788
G1 X181.47 Y148.135 E2.35286
G1 X180.835 Y148.135 E.02788
G1 X219.365 Y186.665 E2.39229
G1 X219.365 Y187.3 E.02788
G1 X180.2 Y148.135 E2.43171
G1 X179.565 Y148.135 E.02788
G1 X219.365 Y187.935 E2.47113
G1 X219.365 Y188.57 E.02788
G1 X178.93 Y148.135 E2.51056
G1 X178.295 Y148.135 E.02788
G1 X219.365 Y189.205 E2.54998
G1 X219.365 Y189.84 E.02788
G1 X177.66 Y148.135 E2.5894
G1 X177.025 Y148.135 E.02788
G1 X219.36 Y190.469 E2.62849
G1 X219.336 Y191.08 E.02684
G1 X176.582 Y148.327 E2.65451
G1 X176.489 Y148.653 E.01492
G1 X176.391 Y148.77 E.0067
G1 X219.283 Y191.663 E2.66315
G1 X219.202 Y192.217 E.02457
G1 X176.03 Y149.045 E2.68049
G1 X175.791 Y149.122 E.01105
G1 X175.485 Y149.135 E.01342
G1 X219.098 Y192.748 E2.70787
G1 X218.975 Y193.259 E.0231
G1 X174.648 Y148.932 E2.7522
;WIPE_START
G1 X176.062 Y150.346 E-.5
;WIPE_END
G1 Z.64 F36000
G1 X173.014 Y147.933 Z.64
G1 Z.24
G1 E.5 F1800
G1 F5400
G1 X218.834 Y193.753 E2.8449
G1 X218.676 Y194.23 E.02206
M73 P4 R29
G1 X172.581 Y148.135 E2.86198
G1 X171.946 Y148.135 E.02788
G1 X218.496 Y194.686 E2.89027
G1 X218.304 Y195.128 E.02118
G1 X171.311 Y148.135 E2.91772
G1 X170.676 Y148.135 E.02788
G1 X218.098 Y195.557 E2.9444
G1 X217.876 Y195.97 E.02058
G1 X170.041 Y148.135 E2.97001
G1 X169.406 Y148.135 E.02788
G1 X217.639 Y196.368 E2.99472
G1 X217.392 Y196.756 E.02019
G1 X168.771 Y148.135 E3.01879
G1 X168.136 Y148.135 E.02788
G1 X217.13 Y197.129 E3.04198
G1 X216.854 Y197.488 E.01988
G1 X167.501 Y148.135 E3.06424
G1 X166.866 Y148.135 E.02788
M73 P4 R28
G1 X216.568 Y197.836 E3.0859
G1 X216.269 Y198.172 E.01974
G1 X166.231 Y148.135 E3.10676
G1 X165.596 Y148.135 E.02788
G1 X215.955 Y198.493 E3.12669
G1 X215.631 Y198.805 E.01971
G1 X164.961 Y148.135 E3.14604
G1 X164.326 Y148.135 E.02788
G1 X215.295 Y199.104 E3.1646
G1 X214.944 Y199.388 E.01982
G1 X163.691 Y148.135 E3.18222
G1 X163.056 Y148.135 E.02788
G1 X214.583 Y199.662 E3.19925
G1 X214.21 Y199.924 E.02002
G1 X162.421 Y148.135 E3.21548
G1 X161.786 Y148.135 E.02788
G1 X213.82 Y200.168 E3.23069
G1 X213.42 Y200.403 E.02037
G1 X161.151 Y148.135 E3.24525
G1 X160.516 Y148.135 E.02788
G1 X213.007 Y200.625 E3.25906
