; HEADER_BLOCK_START
; generated by OrcaSlicer 2.1.1 on 2024-09-04 at 18:45:11
; total layer number: 278
; filament_density: 1.24
; filament_diameter: 1.75
; max_z_height: 45.44
; HEADER_BLOCK_END

; THUMBNAIL_BLOCK_START

;
; THUMBNAIL_BLOCK_END

; THUMBNAIL_BLOCK_START

;
; THUMBNAIL_BLOCK_END

; THUMBNAIL_BLOCK_START

;
; THUMBNAIL_BLOCK_END

; external perimeters extrusion width = 0.40mm
; perimeters extrusion width = 0.50mm
; infill extrusion width = 0.50mm
; solid infill extrusion width = 0.50mm
; top infill extrusion width = 0.42mm
; support material extrusion width = 0.45mm
; first layer extrusion width = 0.50mm

; external perimeters extrusion width = 0.40mm
; perimeters extrusion width = 0.50mm
; infill extrusion width = 0.50mm
; solid infill extrusion width = 0.50mm
; top infill extrusion width = 0.42mm
; support material extrusion width = 0.45mm
; first layer extrusion width = 0.50mm

; EXECUTABLE_BLOCK_START
M73 P0 R33
;TYPE:Custom
G28
G90
G1 X0 F9000
G1 Y20
G1 Z0.600 F600
G1 Y0 F9000
START_PRINT
G90
G1 X0 F9000
G1 Y20
G1 Z0.600 F600
G1 Y0 F9000
M400
G91
M83
M140 S65 ;set bed temp
M104 S235 ;set extruder temp
M190 S65 ;wait for bed temp
M109 S235;wait for extruder temp
G1 E25 F300
G4 P1000
G1 E-0.200 Z5 F600
G1 X88.000 F9000
G1 Z-5.000 F600
G1 X87.000 E20.88 F1800
G1 X87.000 E13.92 F1800
G1 Y1 E0.16 F1800
G1 X-87.000 E13.92 F1800
G1 X-87.000 E20.88 F1800
G1 Y1 E0.24 F1800
G1 X87.000 E20.88 F1800
G1 X87.000 E13.92 F1800
M73 P1 R33
G1 E-0.200 Z1 F600
M400
G90
G21
M83 ; use relative distances for extrusion
; filament start gcode
M106 S0
;LAYER_CHANGE
;Z:0.24
;HEIGHT:0.24
TIMELAPSE_TAKE_FRAME
G92 E0
G1 E-.5 F1800
;_SET_FAN_SPEED_CHANGING_LAYER
SET_VELOCITY_LIMIT ACCEL=3000 ACCEL_TO_DECEL=1500
; printing object SV06 Plus Gantry lvl Holder.stl id:0 copy 0
G1 Z.4 F36000
G1 X182.521 Y200.855
G1 Z.4
G1 Z.24
G1 E.5 F1800
;TYPE:Outer wall
;WIDTH:0.499999
G1 X182.374 Y200.623 E.01203
G1 X182.374 Y173.869 E1.17335
G1 X182.431 Y173.646 E.01009
G1 X182.516 Y173.581 E.00468
G1 X182.739 Y173.455 E.01125
G1 X183.192 Y173.367 E.02022
G1 X225.305 Y173.371 E1.84691
G1 X225.583 Y173.403 E.0123
G1 X225.897 Y173.519 E.01467
G1 X226.042 Y173.634 E.0081
G1 X226.126 Y173.799 E.00814
G1 X226.126 Y200.54 E1.17275
G1 X226.069 Y200.763 E.01009
G1 X225.984 Y200.827 E.00468
G1 X225.761 Y200.954 E.01125
G1 X225.309 Y201.041 E.02022
G1 X183.285 Y201.041 E1.84297
G1 X182.776 Y200.965 E.02259
G1 X182.539 Y200.863 E.0113
G1 X182.822 Y200.508 F36000
;TYPE:Inner wall
G1 F1800
G1 X182.822 Y173.9 E1.16692
G1 X183.205 Y173.816 E.01718
G1 X225.343 Y173.82 E1.84803
G1 X225.678 Y173.912 E.0152
G1 X225.678 Y200.509 E1.16644
G1 X225.295 Y200.593 E.01718
G1 X183.285 Y200.593 E1.84238
G1 X182.842 Y200.512 E.01977
;WIPE_START
G1 X182.84 Y198.512 E-.5
;WIPE_END
G1 Z.64 F36000
G1 X224.594 Y173.954 Z.64
G1 Z.24
G1 E.5 F1800
;TYPE:Bottom surface
;WIDTH:0.503844
G1 F5400
G1 X225.342 Y174.702 E.04676
G1 X225.342 Y175.342 E.0283
G1 X224.156 Y174.156 E.07415
G1 X223.516 Y174.156 E.0283
G1 X225.342 Y175.981 E.11417
G1 X225.342 Y176.621 E.0283
G1 X222.877 Y174.156 E.15419
G1 X222.237 Y174.156 E.0283
G1 X225.342 Y177.261 E.19421
G1 X225.342 Y177.9 E.0283
G1 X221.597 Y174.156 E.23423
G1 X220.957 Y174.156 E.0283
G1 X225.342 Y178.54 E.27425
G1 X225.342 Y179.18 E.0283
G1 X220.317 Y174.156 E.31427
G1 X219.678 Y174.156 E.0283
G1 X225.342 Y179.82 E.35429
G1 X225.342 Y180.459 E.0283
G1 X219.038 Y174.156 E.39431
G1 X218.398 Y174.156 E.0283
G1 X225.342 Y181.099 E.43433
G1 X225.342 Y181.739 E.0283
G1 X217.758 Y174.156 E.47435
G1 X217.119 Y174.156 E.0283
G1 X225.342 Y182.378 E.51437
G1 X225.342 Y183.018 E.0283
G1 X216.479 Y174.155 E.55439
G1 X215.839 Y174.155 E.0283
G1 X225.342 Y183.658 E.59441
G1 X225.342 Y184.298 E.0283
G1 X215.199 Y174.155 E.63443
G1 X214.56 Y174.155 E.0283
G1 X225.342 Y184.937 E.67445
G1 X225.342 Y185.577 E.0283
G1 X213.92 Y174.155 E.71447
G1 X213.28 Y174.155 E.0283
G1 X225.342 Y186.217 E.75449
G1 X225.342 Y186.856 E.0283
G1 X212.64 Y174.155 E.79451
G1 X212 Y174.155 E.0283
G1 X225.342 Y187.496 E.83453
G1 X225.342 Y188.136 E.0283
G1 X211.361 Y174.155 E.87455
G1 X210.721 Y174.155 E.0283
G1 X225.342 Y188.775 E.91457
G1 X225.342 Y189.415 E.0283
G1 X210.081 Y174.155 E.95459
G1 X209.441 Y174.155 E.0283
G1 X225.342 Y190.055 E.99461
G1 X225.342 Y190.695 E.0283
G1 X208.802 Y174.155 E1.03463
G1 X208.162 Y174.155 E.0283
G1 X225.342 Y191.334 E1.07465
G1 X225.342 Y191.974 E.0283
G1 X207.522 Y174.155 E1.11467
G1 X206.882 Y174.155 E.0283
M73 P2 R33
G1 X225.342 Y192.614 E1.15469
G1 X225.342 Y193.253 E.0283
G1 X206.243 Y174.154 E1.19471
G1 X205.603 Y174.154 E.0283
G1 X225.342 Y193.893 E1.23473
G1 X225.342 Y194.533 E.0283
G1 X204.963 Y174.154 E1.27475
G1 X204.323 Y174.154 E.0283
G1 X225.342 Y195.173 E1.31477
G1 X225.342 Y195.812 E.0283
G1 X203.683 Y174.154 E1.35479
G1 X203.044 Y174.154 E.0283
G1 X225.342 Y196.452 E1.3948
G1 X225.342 Y197.092 E.0283
G1 X202.404 Y174.154 E1.43482
G1 X201.764 Y174.154 E.0283
G1 X225.342 Y197.731 E1.47484
G1 X225.342 Y198.371 E.0283
G1 X201.124 Y174.154 E1.51486
G1 X200.485 Y174.154 E.0283
G1 X225.342 Y199.011 E1.55488
G1 X225.342 Y199.65 E.0283
G1 X199.845 Y174.154 E1.5949
G1 X199.205 Y174.154 E.0283
G1 X225.304 Y200.252 E1.63256
G1 X224.668 Y200.256 E.02812
G1 X198.565 Y174.154 E1.63281
G1 X197.926 Y174.154 E.0283
G1 X224.028 Y200.256 E1.63282
G1 X223.389 Y200.256 E.0283
G1 X197.286 Y174.154 E1.63282
G1 X196.646 Y174.153 E.0283
G1 X222.749 Y200.256 E1.63283
G1 X222.109 Y200.256 E.0283
G1 X196.006 Y174.153 E1.63283
G1 X195.366 Y174.153 E.0283
M73 P2 R32
G1 X221.469 Y200.256 E1.63283
G1 X220.83 Y200.256 E.0283
G1 X194.727 Y174.153 E1.63284
G1 X194.087 Y174.153 E.0283
G1 X220.19 Y200.256 E1.63284
G1 X219.55 Y200.256 E.0283
G1 X193.447 Y174.153 E1.63285
G1 X192.807 Y174.153 E.0283
G1 X218.911 Y200.256 E1.63285
G1 X218.271 Y200.256 E.0283
G1 X192.168 Y174.153 E1.63285
G1 X191.528 Y174.153 E.0283
G1 X217.631 Y200.256 E1.63286
G1 X216.992 Y200.256 E.0283
G1 X190.888 Y174.153 E1.63286
G1 X190.248 Y174.153 E.0283
G1 X216.352 Y200.256 E1.63287
G1 X215.712 Y200.256 E.0283
G1 X189.609 Y174.153 E1.63287
G1 X188.969 Y174.153 E.0283
G1 X215.072 Y200.256 E1.63287
G1 X214.433 Y200.256 E.0283
G1 X188.329 Y174.153 E1.63288
G1 X187.689 Y174.153 E.0283
G1 X213.793 Y200.256 E1.63288
G1 X213.153 Y200.256 E.0283
G1 X187.049 Y174.153 E1.63289
G1 X186.41 Y174.152 E.0283
G1 X212.514 Y200.256 E1.63289
G1 X211.874 Y200.256 E.0283
G1 X185.77 Y174.152 E1.63289
G1 X185.13 Y174.152 E.0283
G1 X211.234 Y200.256 E1.6329
G1 X210.594 Y200.256 E.0283
G1 X184.49 Y174.152 E1.6329
G1 X183.851 Y174.152 E.0283
G1 X209.955 Y200.256 E1.63291
G1 X209.315 Y200.256 E.0283
G1 X183.212 Y174.154 E1.63282
G1 X183.159 Y174.162 E.0024
G1 X183.159 Y174.74 E.02554
G1 X208.675 Y200.256 E1.59616
G1 X208.036 Y200.256 E.0283
G1 X183.159 Y175.379 E1.55614
G1 X183.159 Y176.019 E.0283
G1 X207.396 Y200.256 E1.51613
G1 X206.756 Y200.256 E.0283
G1 X183.159 Y176.659 E1.47611
G1 X183.159 Y177.298 E.0283
G1 X206.117 Y200.256 E1.4361
G1 X205.477 Y200.256 E.0283
G1 X183.159 Y177.938 E1.39608
G1 X183.159 Y178.578 E.0283
G1 X204.837 Y200.256 E1.35606
G1 X204.197 Y200.256 E.0283
G1 X183.159 Y179.218 E1.31605
G1 X183.159 Y179.857 E.0283
G1 X203.558 Y200.256 E1.27603
G1 X202.918 Y200.256 E.0283
G1 X183.159 Y180.497 E1.23602
G1 X183.159 Y181.137 E.0283
G1 X202.278 Y200.256 E1.196
G1 X201.639 Y200.256 E.0283
M73 P3 R32
G1 X183.159 Y181.776 E1.15599
G1 X183.159 Y182.416 E.0283
G1 X200.999 Y200.256 E1.11597
G1 X200.359 Y200.256 E.0283
G1 X183.159 Y183.056 E1.07595
G1 X183.159 Y183.696 E.0283
G1 X199.72 Y200.256 E1.03594
G1 X199.08 Y200.256 E.0283
G1 X183.159 Y184.335 E.99592
G1 X183.159 Y184.975 E.0283
G1 X198.44 Y200.256 E.95591
G1 X197.8 Y200.256 E.0283
G1 X183.159 Y185.615 E.91589
G1 X183.159 Y186.254 E.0283
G1 X197.161 Y200.256 E.87588
G1 X196.521 Y200.256 E.0283
G1 X183.159 Y186.894 E.83586
G1 X183.159 Y187.534 E.0283
G1 X195.881 Y200.256 E.79584
G1 X195.242 Y200.256 E.0283
G1 X183.159 Y188.173 E.75583
G1 X183.159 Y188.813 E.0283
G1 X194.602 Y200.256 E.71581
G1 X193.962 Y200.256 E.0283
G1 X183.159 Y189.453 E.6758
G1 X183.159 Y190.093 E.0283
G1 X193.322 Y200.256 E.63578
G1 X192.683 Y200.256 E.0283
G1 X183.159 Y190.732 E.59576
G1 X183.159 Y191.372 E.0283
G1 X192.043 Y200.256 E.55575
G1 X191.403 Y200.256 E.0283
G1 X183.159 Y192.012 E.51573
G1 X183.159 Y192.651 E.0283
G1 X190.764 Y200.256 E.47572
G1 X190.124 Y200.256 E.0283
G1 X183.159 Y193.291 E.4357
G1 X183.159 Y193.931 E.0283
G1 X189.484 Y200.256 E.39569
G1 X188.845 Y200.256 E.0283
G1 X183.159 Y194.571 E.35567
G1 X183.159 Y195.21 E.0283
G1 X188.205 Y200.256 E.31565
G1 X187.565 Y200.256 E.0283
G1 X183.159 Y195.85 E.27564
G1 X183.159 Y196.49 E.0283
G1 X186.925 Y200.256 E.23562
G1 X186.286 Y200.256 E.0283
G1 X183.159 Y197.129 E.19561
G1 X183.159 Y197.769 E.0283
G1 X185.646 Y200.256 E.15559
G1 X185.006 Y200.256 E.0283
G1 X183.159 Y198.409 E.11558
G1 X183.159 Y199.048 E.0283
G1 X184.367 Y200.256 E.07556
G1 X183.727 Y200.256 E.0283
G1 X182.957 Y199.486 E.04817
; stop printing object SV06 Plus Gantry lvl Holder.stl id:0 copy 0
; printing object SV06 heatbed cable support V2.stl id:8026363849985712896 copy 0
;WIPE_START
G1 X183.727 Y200.256 E-.27225
G1 X184.367 Y200.256 E-.15993
G1 X184.175 Y200.065 E-.06782
;WIPE_END
G1 Z.64 F36000
G1 X177.076 Y183.249 Z.64
G1 Z.24
G1 E.5 F1800
;TYPE:Outer wall
;WIDTH:0.499999
G1 X177.026 Y183.553 E.01352
G1 X177.088 Y183.864 E.0139
G1 X177.234 Y184.128 E.01322
G1 X177.568 Y184.408 E.01911
G1 X177.93 Y184.524 E.01668
G1 X179.915 Y184.539 E.08705
G1 X179.91 Y184.783 E.01069
G1 X177.369 Y187.324 E.1576
G1 X175.163 Y187.322 E.09672
G1 X171.9 Y184.058 E.20243
G1 X171.876 Y183.414 E.02826
G1 X171.731 Y182.979 E.02012
G1 X171.58 Y182.775 E.01114
G1 X170.585 Y181.782 E.06165
G1 X170.193 Y181.541 E.02017
G1 X169.84 Y181.474 E.01579
G1 X165.205 Y181.476 E.20327
G1 X164.583 Y181.504 E.02729
;WIDTH:0.515979
G1 X164.215 Y181.656 E.01811
G1 X163.952 Y181.922 E.01696
;WIDTH:0.499999
G1 X163.771 Y182.258 E.01676
G1 X163.72 Y182.996 E.03243
G1 X163.715 Y201.574 E.81476
G1 X159.759 Y201.565 E.17352
G1 X157.842 Y187.872 E.60638
G1 X162.811 Y182.541 E.31963
;WIDTH:0.500706
G1 X163.561 Y181.693 E.0497
;WIDTH:0.515979
G1 X164.314 Y180.9 E.04966
;WIDTH:0.499999
G1 X164.842 Y180.364 E.03302
G1 X171.176 Y173.572 E.40728
G1 X175.016 Y173.578 E.16841
G1 X178.535 Y177.352 E.2263
G1 X178.534 Y181.628 E.18753
G1 X178.314 Y181.783 E.01179
G1 X177.244 Y182.863 E.06668
G1 X177.099 Y183.111 E.01261
G1 X177.08 Y183.229 E.00524
G1 X176.702 Y182.915 F36000
;TYPE:Inner wall
G1 F1800
G1 X176.676 Y182.956 E.00214
G1 X176.581 Y183.495 E.02399
G1 X176.596 Y183.746 E.01102
G1 X176.728 Y184.155 E.01887
G1 X176.944 Y184.482 E.01718
G1 X177.292 Y184.761 E.01956
G1 X177.511 Y184.875 E.01081
G1 X177.927 Y184.972 E.01874
G1 X179.077 Y184.981 E.05046
G1 X177.183 Y186.875 E.11748
G1 X175.349 Y186.874 E.08042
G1 X172.341 Y183.866 E.18656
G1 X172.299 Y183.24 E.02748
G1 X172.129 Y182.768 E.02205
G1 X171.897 Y182.458 E.01698
G1 X170.771 Y181.363 E.06887
G1 X170.313 Y181.103 E.0231
G1 X169.84 Y181.025 E.02103
G1 X165.302 Y181.027 E.19901
G1 X164.801 Y181.045 E.02198
G1 X165.17 Y180.67 E.0231
G1 X171.371 Y174.021 E.39871
G1 X174.821 Y174.026 E.1513
G1 X178.086 Y177.529 E.21002
G1 X178.085 Y181.393 E.16947
G1 X176.925 Y182.547 E.07178
G1 X176.712 Y182.898 E.01799
;WIPE_START
G1 X176.676 Y182.956 E-.01718
G1 X176.581 Y183.495 E-.13673
G1 X176.596 Y183.746 E-.0628
G1 X176.728 Y184.155 E-.10755
G1 X176.944 Y184.482 E-.09791
G1 X177.187 Y184.677 E-.07784
;WIPE_END
G1 Z.64 F36000
G1 X163.292 Y182.683 Z.64
G1 Z.24
G1 E.5 F1800
G1 X163.272 Y182.996 E.01376
G1 X163.267 Y201.124 E.79506
G1 X160.149 Y201.117 E.13674
G1 X158.315 Y188.021 E.57994
G1 X163.278 Y182.697 E.3192
;WIPE_START
G1 X163.272 Y182.996 E-.07462
G1 X163.271 Y184.697 E-.42538
;WIPE_END
G1 Z.64 F36000
G1 X163.137 Y183.947 Z.64
G1 Z.24
G1 E.5 F1800
;TYPE:Bottom surface
;WIDTH:0.513991
G1 F5400
G1 X162.845 Y183.655 E.01868
G1 X162.529 Y183.994 E.02093
G1 X162.935 Y184.399 E.02594
G1 X162.935 Y185.053 E.02957
G1 X162.214 Y184.332 E.04611
G1 X161.898 Y184.671 E.02093
G1 X162.935 Y185.707 E.06628
G1 X162.934 Y186.361 E.02957
G1 X161.583 Y185.009 E.08645
G1 X161.267 Y185.348 E.02093
G1 X162.934 Y187.015 E.10662
G1 X162.934 Y187.669 E.02957
G1 X160.952 Y185.686 E.12679
G1 X160.636 Y186.025 E.02093
G1 X162.934 Y188.323 E.14696
G1 X162.934 Y188.977 E.02957
G1 X160.321 Y186.363 E.16713
G1 X160.005 Y186.702 E.02093
G1 X162.934 Y189.63 E.1873
G1 X162.933 Y190.284 E.02957
G1 X159.69 Y187.04 E.20747
G1 X159.374 Y187.379 E.02093
G1 X162.933 Y190.938 E.22764
G1 X162.933 Y191.592 E.02957
G1 X159.058 Y187.717 E.24781
G1 X158.743 Y188.056 E.02093
G1 X162.933 Y192.246 E.26798
G1 X162.933 Y192.9 E.02957
G1 X158.753 Y188.72 E.26733
G1 X158.859 Y189.481 E.03473
G1 X162.933 Y193.554 E.26051
G1 X162.932 Y194.208 E.02957
G1 X158.966 Y190.241 E.25369
G1 X159.072 Y191.002 E.03473
G1 X162.932 Y194.862 E.24687
G1 X162.932 Y195.515 E.02957
G1 X159.179 Y191.762 E.24005
G1 X159.285 Y192.523 E.03473
G1 X162.932 Y196.169 E.23323
G1 X162.932 Y196.823 E.02957
G1 X159.392 Y193.283 E.2264
G1 X159.498 Y194.044 E.03473
G1 X162.932 Y197.477 E.21958
G1 X162.931 Y198.131 E.02957
G1 X159.605 Y194.804 E.21276
G1 X159.711 Y195.565 E.03473
G1 X162.931 Y198.785 E.20594
G1 X162.931 Y199.439 E.02957
G1 X159.818 Y196.325 E.19912
G1 X159.924 Y197.086 E.03473
G1 X162.931 Y200.093 E.1923
G1 X162.931 Y200.746 E.02957
G1 X160.031 Y197.846 E.18548
G1 X160.137 Y198.607 E.03473
G1 X162.316 Y200.786 E.13936
G1 X161.661 Y200.784 E.02965
G1 X160.244 Y199.368 E.09062
G1 X160.35 Y200.128 E.03473
G1 X161.207 Y200.985 E.05483
;WIPE_START
G1 X160.35 Y200.128 E-.30307
G1 X160.244 Y199.368 E-.19199
G1 X160.258 Y199.381 E-.00494
;WIPE_END
G1 Z.64 F36000
G1 X174.465 Y174.16 Z.64
G1 Z.24
G1 E.5 F1800
;WIDTH:0.516885
G1 F5400
G1 X174.776 Y174.472 E.02006
G1 X177.75 Y177.661 E.19843
G1 X177.75 Y178.104 E.02014
G1 X174.008 Y174.361 E.24085
G1 X173.348 Y174.36 E.03
G1 X177.75 Y178.762 E.28326
G1 X177.75 Y179.42 E.02994
G1 X172.689 Y174.359 E.32567
G1 X172.03 Y174.358 E.03
G1 X177.749 Y180.078 E.36809
G1 X177.749 Y180.736 E.02994
G1 X171.446 Y174.433 E.40563
G1 X171.129 Y174.773 E.02119
G1 X177.674 Y181.318 E.42122
G1 X177.346 Y181.648 E.02118
G1 X170.811 Y175.114 E.42053
G1 X170.494 Y175.454 E.02119
G1 X177.017 Y181.978 E.41984
G1 X176.689 Y182.308 E.02118
G1 X170.176 Y175.795 E.41916
G1 X169.858 Y176.136 E.02119
G1 X176.429 Y182.706 E.42285
G1 X176.366 Y182.826 E.00617
G1 X176.307 Y183.014 E.00896
G1 X176.28 Y183.215 E.00924
G1 X169.541 Y176.476 E.43371
G1 X169.223 Y176.817 E.02119
G1 X176.281 Y183.875 E.45423
G1 X176.328 Y184.063 E.00882
G1 X176.435 Y184.321 E.01271
G1 X176.564 Y184.536 E.01143
G1 X176.703 Y184.717 E.01038
G1 X177.154 Y185.076 E.02623
G1 X177.405 Y185.194 E.01264
G1 X177.679 Y185.272 E.01295
G1 X177.995 Y185.588 E.02032
G1 X177.665 Y185.917 E.02118
G1 X168.906 Y177.157 E.56375
G1 X168.588 Y177.498 E.02119
G1 X177.336 Y186.246 E.56301
G1 X177.044 Y186.539 E.01883
G1 X176.971 Y186.539 E.00332
G1 X168.271 Y177.838 E.55992
G1 X167.953 Y178.179 E.02119
G1 X176.312 Y186.538 E.53797
G1 X175.654 Y186.538 E.02997
G1 X172.449 Y183.333 E.20627
;WIPE_START
G1 X173.863 Y184.747 E-.5
;WIPE_END
G1 Z.64 F36000
G1 X170.031 Y180.915 Z.64
G1 Z.24
G1 E.5 F1800
G1 F5400
G1 X167.635 Y178.52 E.15416
G1 X167.318 Y178.86 E.02119
G1 X169.147 Y180.689 E.11772
G1 X168.489 Y180.69 E.02994
G1 X167 Y179.201 E.09582
G1 X166.683 Y179.541 E.02119
G1 X167.831 Y180.69 E.07392
G1 X167.173 Y180.69 E.02994
G1 X166.365 Y179.882 E.05201
G1 X166.048 Y180.222 E.02119
G1 X166.515 Y180.69 E.03011
G1 X165.858 Y180.691 E.02994
G1 X165.587 Y180.42 E.0174
; stop printing object SV06 heatbed cable support V2.stl id:8026363849985712896 copy 0
M106 S74
;LAYER_CHANGE
;Z:0.44
;HEIGHT:0.2
TIMELAPSE_TAKE_FRAME
G92 E0
;WIPE_START
G1 F5400
G1 X165.858 Y180.691 E-.09561
G1 X166.515 Y180.69 E-.16447
G1 X166.048 Y180.222 E-.16543
G1 X166.251 Y180.004 E-.07449
;WIPE_END
;_SET_FAN_SPEED_CHANGING_LAYER
