; HEADER_BLOCK_START
; generated by OrcaSlicer 2.1.1 on 2024-09-04 at 13:02:22
; total layer number: 50
; filament_density: 1.24
; filament_diameter: 1.75
; max_z_height: 10.05
; HEADER_BLOCK_END

; THUMBNAIL_BLOCK_START

;
; THUMBNAIL_BLOCK_END

; THUMBNAIL_BLOCK_START

;
; THUMBNAIL_BLOCK_END

; THUMBNAIL_BLOCK_START

;
; THUMBNAIL_BLOCK_END

; external perimeters extrusion width = 0.40mm
; perimeters extrusion width = 0.42mm
; infill extrusion width = 0.45mm
; solid infill extrusion width = 0.45mm
; top infill extrusion width = 0.42mm
; first layer extrusion width = 0.50mm

; EXECUTABLE_BLOCK_START
EXCLUDE_OBJECT_DEFINE NAME=10X10.stl_id_0_copy_0 CENTER=175,175 POLYGON=[[170,170],[180,170],[180,180],[170,180],[170,170]]
M73 P0 R4
;TYPE:Custom
G28
G90
G1 X0 F9000
G1 Y20
G1 Z0.600 F600
G1 Y0 F9000
START_PRINT
G90
G1 X0 F9000
G1 Y20
G1 Z0.600 F600
G1 Y0 F9000
M400
G91
M83
M140 S65 ;set bed temp
M104 S235 ;set extruder temp
M190 S65 ;wait for bed temp
M109 S235;wait for extruder temp
G1 E25 F300
G4 P1000
G1 E-0.200 Z5 F600
M73 P2 R4
G1 X88.000 F9000
G1 Z-5.000 F600
G1 X87.000 E20.88 F1800
G1 X87.000 E13.92 F1800
M73 P3 R4
G1 Y1 E0.16 F1800
M73 P4 R4
G1 X-87.000 E13.92 F1800
G1 X-87.000 E20.88 F1800
M73 P5 R4
G1 Y1 E0.24 F1800
M73 P6 R4
G1 X87.000 E20.88 F1800
G1 X87.000 E13.92 F1800
M73 P7 R4
G1 E-0.200 Z1 F600
M400
G90
G21
M83 ; use relative distances for extrusion
; filament start gcode
M106 S0 ; disable fan
;LAYER_CHANGE
;Z:0.25
;HEIGHT:0.25
TIMELAPSE_TAKE_FRAME
G92 E0
M73 P8 R4
G1 E-.5 F1800 ; retract
;_SET_FAN_SPEED_CHANGING_LAYER
SET_VELOCITY_LIMIT ACCEL=3000 ACCEL_TO_DECEL=1500 ; adjust ACCEL_TO_DECEL ; adjust acceleration
; printing object 10X10.stl id:0 copy 0
EXCLUDE_OBJECT_START NAME=10X10.stl_id_0_copy_0
G1 Z.4 F36000 ; normal lift Z
G1 X179.65 Y179.65 ; move to first perimeter point travel_to_xyz
G1 Z.4 ; move to first perimeter point travel_to_xyz
M73 P9 R4
G1 Z.25 ; restore layer Z
G1 E.5 F1800 ;  ; unretract
;TYPE:Outer wall
;WIDTH:0.5
G1 X170.35 Y179.65 E.42282 ; perimeter
G1 X170.35 Y170.35 E.42282 ; perimeter
G1 X179.65 Y170.35 E.42282 ; perimeter
G1 X179.65 Y179.63 E.42191 ; perimeter
G1 X179.204 Y179.204 F36000
;TYPE:Inner wall
G1 F1800
G1 X170.796 Y179.204 E.38224 ; perimeter
G1 X170.796 Y170.796 E.38224 ; perimeter
G1 X179.204 Y170.796 E.38224 ; perimeter
G1 X179.204 Y179.184 E.38133 ; perimeter
;WIPE_START
G1 X177.204 Y179.188 E-.5 ; wipe and retract
;WIPE_END
M73 P10 R4
G1 Z.65 F36000 ; normal lift Z
G1 X179.07 Y171.868 Z.65 ; move to first infill point travel_to_xyz
G1 Z.25 ; restore layer Z
G1 E.5 F1800 ;  ; unretract
;TYPE:Bottom surface
;WIDTH:0.516614
G1 F4252
G1 X178.333 Y171.131 E.04913 ; infill
G1 X177.678 Y171.131 E.03088 ; infill
G1 X178.869 Y172.322 E.0794 ; infill
G1 X178.869 Y172.976 E.03088 ; infill
G1 X177.024 Y171.131 E.12306 ; infill
G1 X176.369 Y171.131 E.03088 ; infill
G1 X178.869 Y173.631 E.16673 ; infill
G1 X178.869 Y174.286 E.03088 ; infill
G1 X175.714 Y171.131 E.21039 ; infill
G1 X175.059 Y171.131 E.03088 ; infill
G1 X178.869 Y174.941 E.25405 ; infill
G1 X178.869 Y175.595 E.03088 ; infill
G1 X174.405 Y171.131 E.29772 ; infill
G1 X173.75 Y171.131 E.03088 ; infill
G1 X178.869 Y176.25 E.34138 ; infill
G1 X178.869 Y176.905 E.03088 ; infill
G1 X173.095 Y171.131 E.38505 ; infill
G1 X172.441 Y171.131 E.03088 ; infill
G1 X178.869 Y177.559 E.42871 ; infill
G1 X178.869 Y178.214 E.03088 ; infill
G1 X171.786 Y171.131 E.47237 ; infill
G1 X171.131 Y171.131 E.03087 ; infill
G1 X178.869 Y178.869 E.51603 ; infill
G1 X178.214 Y178.869 E.03088 ; infill
G1 X171.131 Y171.786 E.47237 ; infill
G1 X171.131 Y172.441 E.03088 ; infill
G1 X177.559 Y178.869 E.4287 ; infill
G1 X176.905 Y178.869 E.03088 ; infill
G1 X171.131 Y173.095 E.38504 ; infill
G1 X171.131 Y173.75 E.03088 ; infill
G1 X176.25 Y178.869 E.34137 ; infill
G1 X175.595 Y178.869 E.03088 ; infill
G1 X171.131 Y174.405 E.29771 ; infill
G1 X171.131 Y175.06 E.03088 ; infill
G1 X174.94 Y178.869 E.25405 ; infill
G1 X174.286 Y178.869 E.03088 ; infill
G1 X171.131 Y175.714 E.21038 ; infill
G1 X171.131 Y176.369 E.03088 ; infill
G1 X173.631 Y178.869 E.16672 ; infill
G1 X172.976 Y178.869 E.03088 ; infill
G1 X171.131 Y177.024 E.12305 ; infill
G1 X171.131 Y177.678 E.03088 ; infill
G1 X172.322 Y178.869 E.07939 ; infill
G1 X171.667 Y178.869 E.03088 ; infill
M73 P11 R4
G1 X170.93 Y178.132 E.04912 ; infill
; stop printing object 10X10.stl id:0 copy 0
M106 S89 ; enable fan
;LAYER_CHANGE
;Z:0.45
;HEIGHT:0.2
TIMELAPSE_TAKE_FRAME
G92 E0
;WIPE_START
G1 F5400
G1 X171.667 Y178.869 E-.26041 ; wipe and retract
G1 X172.322 Y178.869 E-.16368 ; wipe and retract
G1 X172.107 Y178.654 E-.07591 ; wipe and retract
;WIPE_END
EXCLUDE_OBJECT_END NAME=10X10.stl_id_0_copy_0
;_SET_FAN_SPEED_CHANGING_LAYER
SET_VELOCITY_LIMIT ACCEL=20000 ACCEL_TO_DECEL=10000 ; adjust ACCEL_TO_DECEL ; adjust acceleration
M104 S220 ; set nozzle temperature
M140 S65 ; set bed temperature
; printing object 10X10.stl id:0 copy 0
EXCLUDE_OBJECT_START NAME=10X10.stl_id_0_copy_0
G1 Z.65 F36000 ; normal lift Z
G1 X179.8 Y179.8 Z.65 ; move to first perimeter point travel_to_xyz
G1 Z.45 ; restore layer Z
G1 E.5 F1800 ;  ; unretract
SET_VELOCITY_LIMIT ACCEL=8000 ACCEL_TO_DECEL=4000 ; adjust VELOCITY_LIMIT(accel/jerk)
;TYPE:Outer wall
;WIDTH:0.4
G1 F3098
G1 X170.2 Y179.8 E.27934 ; perimeter
G1 X170.2 Y170.2 E.27934 ; perimeter
G1 X179.8 Y170.2 E.27934 ; perimeter
G1 X179.8 Y179.78 E.27875 ; perimeter
SET_VELOCITY_LIMIT ACCEL=20000 ACCEL_TO_DECEL=10000 ; adjust VELOCITY_LIMIT(accel/jerk)
G1 X179.433 Y179.433 F36000
SET_VELOCITY_LIMIT ACCEL=12000 ACCEL_TO_DECEL=6000 ; adjust VELOCITY_LIMIT(accel/jerk)
;TYPE:Inner wall
;WIDTH:0.42
G1 F3098
G1 X170.567 Y179.433 E.27242 ; perimeter
G1 X170.567 Y170.567 E.27242 ; perimeter
G1 X179.433 Y170.567 E.27242 ; perimeter
G1 X179.433 Y179.413 E.27181 ; perimeter
SET_VELOCITY_LIMIT ACCEL=20000 ACCEL_TO_DECEL=10000 ; adjust VELOCITY_LIMIT(accel/jerk)
G1 X178.491 Y179.342 F36000
;TYPE:Internal solid infill
;WIDTH:0.463195
G1 F3098
G1 X179.158 Y178.674 E.03234 ; infill
G1 X179.158 Y178.08 E.02036 ; infill
G1 X178.08 Y179.158 E.05225 ; infill
G1 X177.485 Y179.158 E.02036 ; infill
G1 X179.158 Y177.485 E.08104 ; infill
G1 X179.158 Y176.891 E.02036 ; infill
G1 X176.891 Y179.158 E.10983 ; infill
G1 X176.297 Y179.158 E.02036 ; infill
G1 X179.158 Y176.297 E.13861 ; infill
G1 X179.158 Y175.702 E.02036 ; infill
G1 X175.702 Y179.158 E.1674 ; infill
G1 X175.108 Y179.158 E.02036 ; infill
G1 X179.158 Y175.108 E.19619 ; infill
G1 X179.158 Y174.513 E.02036 ; infill
G1 X174.513 Y179.158 E.22497 ; infill
G1 X173.919 Y179.158 E.02036 ; infill
G1 X179.158 Y173.919 E.25376 ; infill
G1 X179.158 Y173.325 E.02036 ; infill
G1 X173.325 Y179.158 E.28254 ; infill
G1 X172.73 Y179.158 E.02036 ; infill
G1 X179.158 Y172.73 E.31133 ; infill
G1 X179.158 Y172.136 E.02036 ; infill
M73 P12 R4
G1 X172.136 Y179.158 E.34012 ; infill
G1 X171.542 Y179.158 E.02036 ; infill
G1 X179.158 Y171.542 E.3689 ; infill
G1 X179.158 Y170.947 E.02036 ; infill
G1 X170.947 Y179.158 E.39769 ; infill
G1 X170.842 Y179.158 E.00362 ; infill
G1 X170.842 Y178.67 E.01673 ; infill
G1 X178.67 Y170.842 E.37915 ; infill
G1 X178.075 Y170.842 E.02036 ; infill
G1 X170.842 Y178.075 E.35036 ; infill
G1 X170.842 Y177.481 E.02036 ; infill
G1 X177.481 Y170.842 E.32157 ; infill
G1 X176.887 Y170.842 E.02036 ; infill
G1 X170.842 Y176.887 E.29279 ; infill
G1 X170.842 Y176.292 E.02036 ; infill
G1 X176.292 Y170.842 E.264 ; infill
G1 X175.698 Y170.842 E.02036 ; infill
G1 X170.842 Y175.698 E.23521 ; infill
G1 X170.842 Y175.104 E.02036 ; infill
G1 X175.104 Y170.842 E.20643 ; infill
G1 X174.509 Y170.842 E.02036 ; infill
G1 X170.842 Y174.509 E.17764 ; infill
G1 X170.842 Y173.915 E.02036 ; infill
G1 X173.915 Y170.842 E.14886 ; infill
G1 X173.321 Y170.842 E.02036 ; infill
G1 X170.842 Y173.321 E.12007 ; infill
G1 X170.842 Y172.726 E.02036 ; infill
G1 X172.726 Y170.842 E.09128 ; infill
G1 X172.132 Y170.842 E.02036 ; infill
G1 X170.842 Y172.132 E.0625 ; infill
G1 X170.842 Y171.538 E.02036 ; infill
G1 X171.721 Y170.658 E.04258 ; infill
G1 X170.963 Y170.9 F36000
;WIDTH:0.41097
G1 F3098
G1 X170.894 Y170.94 E.00239 ; infill
G1 X170.963 Y170.979 E.00239 ; infill
G1 X170.976 Y170.957 E.00078 ; infill
; stop printing object 10X10.stl id:0 copy 0
M106 S176 ; enable fan
;LAYER_CHANGE
;Z:0.65
;HEIGHT:0.2
TIMELAPSE_TAKE_FRAME
G92 E0
G1 E-.4561 F1800 ; retract
;WIPE_START
G1 F7600
G1 X170.963 Y170.979 E-.00616 ; wipe and retract
G1 X170.894 Y170.94 E-.01887 ; wipe and retract
G1 X170.963 Y170.9 E-.01887 ; wipe and retract
;WIPE_END
EXCLUDE_OBJECT_END NAME=10X10.stl_id_0_copy_0
;_SET_FAN_SPEED_CHANGING_LAYER
; printing object 10X10.stl id:0 copy 0
EXCLUDE_OBJECT_START NAME=10X10.stl_id_0_copy_0
G1 Z.85 F36000 ; normal lift Z
G1 X179.8 Y179.8 Z.85 ; move to first perimeter point travel_to_xyz
G1 Z.65 ; restore layer Z
G1 E.5 F1800 ;  ; unretract
SET_VELOCITY_LIMIT ACCEL=8000 ACCEL_TO_DECEL=4000 ; adjust VELOCITY_LIMIT(accel/jerk)
;TYPE:Outer wall
;WIDTH:0.4
G1 F3109
G1 X170.2 Y179.8 E.27934 ; perimeter
G1 X170.2 Y170.2 E.27934 ; perimeter
G1 X179.8 Y170.2 E.27934 ; perimeter
M73 P13 R4
G1 X179.8 Y179.78 E.27875 ; perimeter
SET_VELOCITY_LIMIT ACCEL=20000 ACCEL_TO_DECEL=10000 ; adjust VELOCITY_LIMIT(accel/jerk)
G1 X179.433 Y179.433 F36000
SET_VELOCITY_LIMIT ACCEL=12000 ACCEL_TO_DECEL=6000 ; adjust VELOCITY_LIMIT(accel/jerk)
;TYPE:Inner wall
;WIDTH:0.42
G1 F3109
G1 X170.567 Y179.433 E.27242 ; perimeter
G1 X170.567 Y170.567 E.27242 ; perimeter
G1 X179.433 Y170.567 E.27242 ; perimeter
G1 X179.433 Y179.413 E.27181 ; perimeter
SET_VELOCITY_LIMIT ACCEL=20000 ACCEL_TO_DECEL=10000 ; adjust VELOCITY_LIMIT(accel/jerk)
G1 X179.342 Y171.509 F36000
;TYPE:Internal solid infill
;WIDTH:0.463195
G1 F3109
G1 X178.674 Y170.842 E.03234 ; infill
G1 X178.08 Y170.842 E.02036 ; infill
G1 X179.158 Y171.92 E.05225 ; infill
G1 X179.158 Y172.515 E.02036 ; infill
G1 X177.485 Y170.842 E.08104 ; infill
G1 X176.891 Y170.842 E.02036 ; infill
G1 X179.158 Y173.109 E.10983 ; infill
G1 X179.158 Y173.703 E.02036 ; infill
G1 X176.297 Y170.842 E.13861 ; infill
G1 X175.702 Y170.842 E.02036 ; infill
G1 X179.158 Y174.298 E.1674 ; infill
G1 X179.158 Y174.892 E.02036 ; infill
G1 X175.108 Y170.842 E.19619 ; infill
G1 X174.513 Y170.842 E.02036 ; infill
G1 X179.158 Y175.487 E.22497 ; infill
G1 X179.158 Y176.081 E.02036 ; infill
G1 X173.919 Y170.842 E.25376 ; infill
G1 X173.325 Y170.842 E.02036 ; infill
G1 X179.158 Y176.675 E.28254 ; infill
G1 X179.158 Y177.27 E.02036 ; infill
G1 X172.73 Y170.842 E.31133 ; infill
G1 X172.136 Y170.842 E.02036 ; infill
G1 X179.158 Y177.864 E.34012 ; infill
G1 X179.158 Y178.458 E.02036 ; infill
G1 X171.542 Y170.842 E.3689 ; infill
G1 X170.947 Y170.842 E.02036 ; infill
M73 P14 R4
G1 X179.158 Y179.053 E.39769 ; infill
G1 X179.158 Y179.158 E.00362 ; infill
G1 X178.67 Y179.158 E.01673 ; infill
G1 X170.842 Y171.33 E.37915 ; infill
G1 X170.842 Y171.925 E.02036 ; infill
G1 X178.075 Y179.158 E.35036 ; infill
G1 X177.481 Y179.158 E.02036 ; infill
G1 X170.842 Y172.519 E.32157 ; infill
G1 X170.842 Y173.113 E.02036 ; infill
G1 X176.887 Y179.158 E.29279 ; infill
G1 X176.292 Y179.158 E.02036 ; infill
G1 X170.842 Y173.708 E.264 ; infill
G1 X170.842 Y174.302 E.02036 ; infill
G1 X175.698 Y179.158 E.23521 ; infill
G1 X175.104 Y179.158 E.02036 ; infill
G1 X170.842 Y174.896 E.20643 ; infill
G1 X170.842 Y175.491 E.02036 ; infill
G1 X174.509 Y179.158 E.17764 ; infill
G1 X173.915 Y179.158 E.02036 ; infill
G1 X170.842 Y176.085 E.14886 ; infill
G1 X170.842 Y176.679 E.02036 ; infill
G1 X173.321 Y179.158 E.12007 ; infill
G1 X172.726 Y179.158 E.02036 ; infill
G1 X170.842 Y177.274 E.09128 ; infill
G1 X170.842 Y177.868 E.02036 ; infill
G1 X172.132 Y179.158 E.0625 ; infill
G1 X171.538 Y179.158 E.02036 ; infill
G1 X170.658 Y178.279 E.04258 ; infill
G1 X170.963 Y179.021 F36000
;WIDTH:0.41097
G1 F3109
G1 X170.894 Y179.06 E.00239 ; infill
G1 X170.963 Y179.1 E.00239 ; infill
G1 X170.976 Y179.078 E.00078 ; infill
; stop printing object 10X10.stl id:0 copy 0
;LAYER_CHANGE
;Z:0.85
;HEIGHT:0.2
TIMELAPSE_TAKE_FRAME
G92 E0
G1 E-.46595 F1800 ; retract
;WIPE_START
G1 F9800
G1 X170.963 Y179.1 E-.00478 ; wipe and retract
G1 X170.894 Y179.06 E-.01464 ; wipe and retract
G1 X170.963 Y179.021 E-.01464 ; wipe and retract
;WIPE_END
EXCLUDE_OBJECT_END NAME=10X10.stl_id_0_copy_0
;_SET_FAN_SPEED_CHANGING_LAYER
; printing object 10X10.stl id:0 copy 0
EXCLUDE_OBJECT_START NAME=10X10.stl_id_0_copy_0
G1 Z1.05 F36000 ; normal lift Z
G1 X179.8 Y179.8 Z1.05 ; move to first perimeter point travel_to_xyz
G1 Z.85 ; restore layer Z
G1 E.5 F1800 ;  ; unretract
SET_VELOCITY_LIMIT ACCEL=8000 ACCEL_TO_DECEL=4000 ; adjust VELOCITY_LIMIT(accel/jerk)
;TYPE:Outer wall
;WIDTH:0.4
G1 F1311
G1 X170.2 Y179.8 E.27934 ; perimeter
G1 X170.2 Y170.2 E.27934 ; perimeter
G1 X179.8 Y170.2 E.27934 ; perimeter
M73 P15 R4
G1 X179.8 Y179.78 E.27875 ; perimeter
SET_VELOCITY_LIMIT ACCEL=20000 ACCEL_TO_DECEL=10000 ; adjust VELOCITY_LIMIT(accel/jerk)
G1 X179.433 Y179.433 F36000
SET_VELOCITY_LIMIT ACCEL=12000 ACCEL_TO_DECEL=6000 ; adjust VELOCITY_LIMIT(accel/jerk)
;TYPE:Inner wall
;WIDTH:0.42
M73 P15 R3
G1 F1311
G1 X170.567 Y179.433 E.27242 ; perimeter
G1 X170.567 Y170.567 E.27242 ; perimeter
G1 X179.433 Y170.567 E.27242 ; perimeter
G1 X179.433 Y179.413 E.27181 ; perimeter
SET_VELOCITY_LIMIT ACCEL=20000 ACCEL_TO_DECEL=10000 ; adjust VELOCITY_LIMIT(accel/jerk)
G1 X179.158 Y174.341 F36000
;TYPE:Sparse infill
;WIDTH:0.45
G1 F1311
G1 X179.158 Y172.713 E.05401 ; infill
G1 X176.768 Y170.842 E.10071 ; infill
G1 X170.842 Y170.842 E.1966 ; infill
M73 P16 R3
G1 X170.842 Y171.069 E.00756 ; infill
G1 X173.446 Y173.108 E.10971 ; infill
G1 X173.783 Y173.446 E.01582 ; infill
G1 X176.217 Y176.554 E.13098 ; infill
G1 X176.554 Y176.892 E.01582 ; infill
G1 X179.158 Y178.931 E.10971 ; infill
G1 X179.158 Y179.158 E.00756 ; infill
G1 X173.232 Y179.158 E.1966 ; infill
G1 X170.842 Y177.287 E.10071 ; infill
G1 X170.842 Y175.659 E.05401 ; infill
; stop printing object 10X10.stl id:0 copy 0
;LAYER_CHANGE
;Z:1.05
;HEIGHT:0.2
TIMELAPSE_TAKE_FRAME
G92 E0
G1 E-.26738 F1800 ; retract
;WIPE_START
G1 F15476.087
G1 X170.842 Y177.287 E-.18939 ; wipe and retract
G1 X171.134 Y177.516 E-.04323 ; wipe and retract
;WIPE_END
EXCLUDE_OBJECT_END NAME=10X10.stl_id_0_copy_0
;_SET_FAN_SPEED_CHANGING_LAYER
; printing object 10X10.stl id:0 copy 0
EXCLUDE_OBJECT_START NAME=10X10.stl_id_0_copy_0
G1 Z1.25 F36000 ; normal lift Z
G1 X179.8 Y179.8 Z1.25 ; move to first perimeter point travel_to_xyz
G1 Z1.05 ; restore layer Z
G1 E.5 F1800 ;  ; unretract
SET_VELOCITY_LIMIT ACCEL=8000 ACCEL_TO_DECEL=4000 ; adjust VELOCITY_LIMIT(accel/jerk)
;TYPE:Outer wall
;WIDTH:0.4
G1 F1313
G1 X170.2 Y179.8 E.27934 ; perimeter
G1 X170.2 Y170.2 E.27934 ; perimeter
G1 X179.8 Y170.2 E.27934 ; perimeter
G1 X179.8 Y179.78 E.27875 ; perimeter
SET_VELOCITY_LIMIT ACCEL=20000 ACCEL_TO_DECEL=10000 ; adjust VELOCITY_LIMIT(accel/jerk)
M73 P17 R3
G1 X179.433 Y179.433 F36000
SET_VELOCITY_LIMIT ACCEL=12000 ACCEL_TO_DECEL=6000 ; adjust VELOCITY_LIMIT(accel/jerk)
;TYPE:Inner wall
;WIDTH:0.42
G1 F1313
G1 X170.567 Y179.433 E.27242 ; perimeter
G1 X170.567 Y170.567 E.27242 ; perimeter
G1 X179.433 Y170.567 E.27242 ; perimeter
G1 X179.433 Y179.413 E.27181 ; perimeter
SET_VELOCITY_LIMIT ACCEL=20000 ACCEL_TO_DECEL=10000 ; adjust VELOCITY_LIMIT(accel/jerk)
G1 X174.569 Y179.158 F36000
;TYPE:Sparse infill
;WIDTH:0.45
G1 F1313
G1 X172.941 Y179.158 E.05401 ; infill
G1 X170.842 Y177.059 E.09849 ; infill
G1 X170.842 Y170.842 E.20625 ; infill
G1 X179.158 Y179.158 E.39016 ; infill
G1 X179.158 Y172.941 E.20625 ; infill
M73 P18 R3
G1 X177.059 Y170.842 E.09849 ; infill
G1 X175.431 Y170.842 E.05401 ; infill
; stop printing object 10X10.stl id:0 copy 0
;LAYER_CHANGE
;Z:1.25
;HEIGHT:0.2
TIMELAPSE_TAKE_FRAME
G92 E0
G1 E-.26738 F1800 ; retract
;WIPE_START
G1 F15476.087
G1 X177.059 Y170.842 E-.18939 ; wipe and retract
G1 X177.322 Y171.104 E-.04323 ; wipe and retract
;WIPE_END
EXCLUDE_OBJECT_END NAME=10X10.stl_id_0_copy_0
;_SET_FAN_SPEED_CHANGING_LAYER
